mobile/24/svg/collection-24.svg

<svg width="24" height="24" viewBox="0 0 24 24" fill="none" xmlns="http://www.w3.org/2000/svg">
<path d="M16.75 13.5H7.25V11.75H16.75V13.5Z" fill="black"/>
<path d="M7.25 17.5H16.75V15.75H7.25V17.5Z" fill="black"/>
<path fill-rule="evenodd" clip-rule="evenodd" d="M8.057 2C7.16966 2 6.34787 2.47048 5.89968 3.23728L3.36991 7.55789C3.29139 7.69199 3.25 7.84459 3.25 8V19.5C3.25 20.8802 4.36975 22 5.75 22H18.25C19.6302 22 20.75 20.8802 20.75 19.5V8C20.75 7.84465 20.7086 7.69209 20.6302 7.55802L18.1008 3.23642C17.6518 2.47071 16.8307 2 15.943 2H8.057ZM7.41048 4.12045C7.54432 3.89141 7.79044 3.75 8.057 3.75H15.943C16.2091 3.75 16.4561 3.89164 16.5912 4.12158L18.4222 7.25H5.57809L7.41048 4.12045ZM5 9V19.5C5 19.9138 5.33625 20.25 5.75 20.25H18.25C18.6638 20.25 19 19.9138 19 19.5V9H5Z" fill="black"/>
</svg>

<svg width="24" height="24" fill="none" xmlns="http://www.w3.org/2000/svg"><path d="M16.75 13.5h-9.5v-1.75h9.5v1.75zM7.25 17.5h9.5v-1.75h-9.5v1.75z" fill="#000"/><path fill-rule="evenodd" clip-rule="evenodd" d="M8.057 2c-.887 0-1.71.47-2.157 1.237l-2.53 4.32A.875.875 0 0 0 3.25 8v11.5a2.5 2.5 0 0 0 2.5 2.5h12.5a2.5 2.5 0 0 0 2.5-2.5V8a.876.876 0 0 0-.12-.442L18.1 3.236A2.502 2.502 0 0 0 15.944 2H8.057zM7.41 4.12a.749.749 0 0 1 .647-.37h7.886c.266 0 .513.142.648.372l1.831 3.128H5.578L7.41 4.12zM5 9v10.5c0 .414.336.75.75.75h12.5a.75.75 0 0 0 .75-.75V9H5z" fill="#000"/></svg>
